!!!COM: Joplin, Scott
!!!CDT: 1868/11/24/-1917/04/01/
!!!OTL: Combination March
!!!ODT: 1896///
**kern	**kern	**dynam
*staff2	*staff1	*staff1/2
*clefF4	*clefG2	*clefG2
*Ipiano	*Ipiano	*Ipiano
*>[I,A,A1,A,A2,B,C,C1,C,C2,D,E,E1,E,E2,F,F1,F,F2]	*>[I,A,A1,A,A2,B,C,C1,C,C2,D,E,E1,E,E2,F,F1,F,F2]	*>[I,A,A1,A,A2,B,C,C1,C,C2,D,E,E1,E,E2,F,F1,F,F2]
*>norep[I,A,A2,B,C,C2,D,E,E2,F,F2]	*>norep[I,A,A2,B,C,C2,D,E,E2,F,F2]	*>norep[I,A,A2,B,C,C2,D,E,E2,F,F2]
*>I	*>I	*>I
*k[b-e-]	*k[b-e-]	*k[b-e-]
*met(C)	*met(C)	*met(C)
*M4/4	*M4/4	*M4/4
*MM100	*MM100	*MM100
4r	4f/	mp
=1	=1	=1
*	*^	*
2BB-\ 2B-\	2b-/	4r	.
.	.	4d\ 4f\	.
2AA-\ 2A-\	2dd/	4r	.
.	.	4d\ 4f\ 4b-\	.
=2	=2	=2	=2
2GG/ 2G/	2ee-/	4r	.
.	.	4e-\ 4g\ 4b-\	<
2GG-/ 2G-/	2een/	4r	.
.	.	4en\ 4b-\ 4cc#\	.
=3	=3	=3	=3
2FF/ 2F/	2ff/	4r	.
.	.	4f\ 4b-\ 4dd\	.
2A\ 2c\ 2e-\ 2a\	2r	(8ff\L	.
.	.	8ee-\J)	.
.	.	4a/	.
*	*v	*v	*
=4	=4	=4
4BB-/	4b-\	.
4F\ 4B-\ 4d\	4r	.
4FF/	4r	.
4F\ 4B-\ 4d\	4dd\	.
=5!|:	=5!|:	=5!|:
*>A	*>A	*>A
*MM120	*MM120	*MM120
4C/	4.ee-\	.
4F\ 4A\ 4e-\	.	.
.	8dd\	.
4FF/	4.cc\	.
4F\ 4A\ 4e-\	.	.
.	8dd\	.
=6	=6	=6
4C/	4ee-\	.
4F\ 4A\ 4e-\	4ff\	.
4FF/	2cc\	.
4F\ 4A\ 4e-\	.	.
=7	=7	=7
4BB-/	4.dd\	.
4F\ 4B-\ 4d\	.	.
.	8cc\	.
4FF/	4.b-\	.
4F\ 4B-\ 4d\	.	.
.	8cc\	.
=8	=8	=8
4BB-/	4dd\	.
4F\ 4B-\ 4d\	4ff\	.
4D\	4f/	.
4F\ 4B-\ 4d\	4a-/	.
=9	=9	=9
4E-\	4.g/	.
4G\ 4B-\ 4e-\	.	.
.	8b-\	.
4E-\	4ee-\	.
4G\ 4B-\ 4e-\	4g/	.
=10	=10	=10
4D\	4.b-\	.
4F\ 4B-\ 4d\	.	.
.	8dd\	.
4D\	4ff\	.
4F\ 4B-\ 4d\	4f/	.
=11	=11	=11
4FF/ 4F/	(8ff\L	.
.	8ee-\J)	.
4F\ 4B-\ 4d\	4dd\	.
4FF/ 4F/	(8ee-\L	.
.	8dd\J)	.
4F\ 4A\ 4e-\	4cc\	.
=12	=12	=12
4BB-/	(8b-/L	.
.	8f/	.
4F\ 4B-\ 4d\	8f#/	.
.	8g/J	.
4FF/	8a\L	.
.	8b-\	.
4F\ 4B-\ 4d\	8cc\	.
.	8dd\J)	.
=13	=13	=13
4C/	4.ee-\	.
4F\ 4A\ 4e-\	.	.
.	8dd\	.
4FF/	4.cc\	.
4F\ 4A\ 4e-\	.	.
.	8dd\	.
=14	=14	=14
4C/	4ee-\	.
4F\ 4A\ 4e-\	4ff\	.
4FF/	2cc\	.
4F\ 4A\ 4e-\	.	.
=15	=15	=15
4BB-/	4.dd\	.
4F\ 4B-\ 4d\	.	.
.	8cc\	.
4FF/	4.b-\	.
4F\ 4B-\ 4d\	.	.
.	8cc\	.
=16	=16	=16
4BB-/	4dd\	.
4F\ 4B-\ 4d\	4ff\	.
4D\	4f/	.
4F\ 4B-\ 4d\	4a-/	.
=17	=17	=17
4E-\	4.g/	.
4G\ 4B-\ 4e-\	.	.
.	8b-\	.
4E-\	4ee-\	.
4G\ 4B-\ 4e-\	4g/	.
=18	=18	=18
4D\	4.b-\	.
4F\ 4B-\ 4d\	.	.
.	8dd\	.
4D\	4ff\	.
4F\ 4B-\ 4d\	4f/	.
=19	=19	=19
4FF/ 4F/	(8ff\L	.
.	8ee-\J)	.
4F\ 4B-\ 4d\	4dd\	.
4FF/ 4F/	(8ee-\L	.
.	8dd\J)	.
4F\ 4A\ 4e-\	4cc\	.
=20	=20	=20
*>A1	*>A1	*>A1
4BB-\ 4B-\	4d/ 4f/ 4b-/	.
4F\	4d/ 4f/ 4b-/	.
4BB-\ 4B-\	4d/ 4f/ 4b-/	.
4r	4dd\	.
=21:|!	=21:|!	=21:|!
*>A2	*>A2	*>A2
4BB-\ 4B-\	4d/ 4f/ 4b-/	.
4F\	8d/ 8f/ 8b-/L	.
.	8d/ 8f/ 8b-/J	.
4BB-\ 4B-\	4d/ 4f/ 4b-/	.
4r	4r	.
=22	=22	=22
*>B	*>B	*>B
8GG/L	4b-\ 4dd\	.
8FF#/J	.	.
4GG/	4b-\ 4dd\	.
2DD/ 2D/	4a\ 4cc\	.
.	4a\ 4cc\	.
*clefG2	*	*
=23	=23	=23
4g/ 4b-/	(8gg\L	.
.	8ff#\J)	.
4g/ 4b-/	4gg\	.
4f#/ 4a/	4.dd\ 4.ddd\	.
4f#/ 4a/	.	.
.	8cc#\ (8ccc#\	.
*clefF4	*	*
=24	=24	=24
4r	4dd\ 4ddd\)	.
4DD/ 4D/	4r	.
4EE-/ 4E-/	2r	.
4EEn/ 4En/	.	.
=25	=25	=25
4FF/ 4F/	4r	.
4FF#/ 4F#/	4dd\ 4ff#\ 4aa\ 4ddd\	.
4GG/ 4G/	4gg\ 4bb-\ 4ddd\ 4ggg\	.
4r	4r	.
=26	=26	=26
(8FFn/L	4a/ 4cc/	.
8EEn/J)	.	.
4FF/	4a/ 4cc/	.
2CC/ 2C/	4g/ 4b-/	.
.	4g/ 4b-/	.
*clefG2	*	*
=27	=27	=27
4f/ 4a/	8ffn\L	.
.	8een\J	.
4f/ 4a/	4ff\	.
4en/ 4g/	4.cc\ 4.ccc\	.
4e/ 4g/	.	.
.	8bn\ (8bbn\	.
*clefF4	*	*
=28	=28	=28
4r	4cc\ 4ccc\)	.
4CC/ 4C/	4r	.
4CC#/ 4C#/	2r	.
4DD/ 4D/	.	.
=29	=29	=29
4EE-/ 4E-/	4r	.
4EEn/ 4En/	4cc\ 4een\ 4gg\ 4ccc\	.
4FF/ 4F/	4ff\ 4aa\ 4ccc\ 4fff\	.
4r	4f/	.
=30!|:	=30!|:	=30!|:
*>C	*>C	*>C
2F\ 2B-\	4b-\ 4dd\	p
.	4f/	.
2F\ 2B-\	4b-\ 4dd\	.
.	4f/	.
=31	=31	=31
2F\ 2A\	4cc\ 4ee-\	.
.	4f/	.
2F\ 2A\	4cc\ 4ee-\	.
.	4f/	.
*	*clefF4	*clefF4
=32	=32	=32
4.FF/	4.F\	f
8BB-/	8B-\	.
4GG/	4G\	.
4GG#/	4G#\	.
=33	=33	=33
4AA/	4A\	.
4GGn/	4Gn\	.
4FF/	4F\	.
*	*clefG2	*clefG2
4r	4f/	.
=34	=34	=34
2F\ 2B-\	4b-\ 4dd\	p
.	4f/	.
2F\ 2B-\	4b-\ 4dd\	.
.	4f/	.
=35	=35	=35
2G#\ 2Bn\ 2d\	4dd\ 4ff\	.
.	4f/	.
2G#\ 2B\ 2d\	4dd\ 4ff\	.
.	4f/	.
=36	=36	=36
(8AA/L	(8A/L	f
8BB-/	8B-/	.
8BBn/	8Bn/	.
8C/J	8c/J	.
8C#\L	8c#/L	.
8D\	8d/	.
8E-\	8e-/	.
8En\J)	8en/J)	.
=37	=37	=37
4F\	4f/	.
4EEn/ 4En/	4cc#\ 4een\ 4gg\ 4ccc#\	.
4DD/ 4D/	4dd\ 4ff\ 4aa\ 4ddd\	.
4r	4f/	.
=38	=38	=38
2F\ 2B-\	4b-\ 4dd\	p
.	4f/	.
2F\ 2B-\	4b-\ 4dd\	.
.	4f/	.
=39	=39	=39
2F\ 2A\	4cc\ 4ee-\	.
.	4f/	.
2F\ 2A\	4cc\ 4ee-\	.
.	4f/	.
*	*clefF4	*clefF4
=40	=40	=40
4.FF/	4.F\	f
8BB-/	8B-\	.
4GG/	4G\	.
4GG#/	4G#\	.
=41	=41	=41
4AA/	4A\	.
4GGn/	4Gn\	.
4FF/	4F\	.
*	*clefG2	*clefG2
4DD/ 4D/	4f\ 4b-\ 4ff\	.
=42	=42	=42
4EE-/ 4E-/	2g\ 2b-\ 2gg\	.
4G\ 4B-\ 4e-\	.	.
4GG/ 4G/	4b-\ 4ee-\ 4bb-\	.
4GG-/ 4G-/	4cc\ 4ee-\ 4ccc\	.
=43	=43	=43
4FF/ 4F/	2dd\ 2bb-\ 2ddd\	.
4F\ 4B-\ 4d\	.	.
4FF/ 4F/	4ff\ 4ddd\ 4fff\	.
4GG/ 4G/	4een\ 4ddd-\ 4eeen\	.
=44	=44	=44
4AA\ 4A\	2ee-\ 2ccc\ 2eee-\	.
4F\ 4A\ 4c\ 4e-\	.	.
4FF/ 4F/	4g\ 4ee-\ 4gg\	.
4F\ 4A\ 4c\ 4e-\	4a\ 4ee-\ 4aa\	.
=45	=45	=45
*>C1	*>C1	*>C1
4BB-\ 4B-\	4b-\ 4dd\ 4ff\ 4bb-\	.
4F\	4b-\ 4dd\ 4ff\ 4bb-\	.
4BB-\ 4B-\	4b-\ 4dd\ 4ff\ 4bb-\	.
4r	4f/	.
=46:|!	=46:|!	=46:|!
*>C2	*>C2	*>C2
4BB-\ 4B-\	4b-\ 4dd\ 4ff\ 4bb-\	.
4F\	4b-\ 4dd\ 4ff\ 4bb-\	.
4BB-\ 4B-\	4b-\ 4dd\ 4ff\ 4bb-\	.
4r	4B-/	.
=47	=47	=47
*>D	*>D	*>D
*k[b-e-a-]	*k[b-e-a-]	*k[b-e-a-]
1r	8b-/L	.
.	8B-/	.
.	8d/	.
.	8f/J	.
.	4b-/	.
.	4B-/	.
=48	=48	=48
1r	8b-/L	.
.	8B-/	.
.	8e-/	.
.	8g/J	.
.	4b-\	.
.	8b-\ 8bb-\L	.
.	8b-\ 8bb-\J	.
*clefG2	*	*
=49	=49	=49
2d/ 2f/	4b-\ 4bb-\	.
.	8b-\ 8bb-\L	.
.	8b-\ 8bb-\J	.
2e-/ 2g/	4b-\ 4bb-\	.
.	8b-\ 8bb-\L	.
.	8b-\ 8bb-\J	.
=50	=50	=50
2f/ 2a-/	2b-\ 2bb-\	.
2r	8r	.
.	8b-\L	.
.	8ee-\	.
.	8gg\J	.
*clefF4	*	*
=51!|:	=51!|:	=51!|:
*>E	*>E	*>E
4EE-/ 4E-/	2b-\ 2gg\ 2bb-\	.
4G\ 4B-\ 4e-\	.	.
4BBB-/ 4BB-/	2cc\ 2gg\ 2ccc\	.
4G\ 4B-\ 4e-\	.	.
=52	=52	=52
4EE-/ 4E-/	4b-\ 4gg\ 4bb-\	.
4G\ 4B-\ 4e-\	8b-\ 8gg\ 8bb-\L	.
.	8b-\ 8gg\ 8bb-\J	.
4BBB-/ 4BB-/	8b-\ 8gg\ 8bb-\L	.
.	8b-\	.
4G\ 4B-\ 4e-\	8ee-\	.
.	8gg\J	.
=53	=53	=53
4EE-/ 4E-/	2b-\ 2gg\ 2bb-\	.
4G\ 4B-\ 4e-\	.	.
4BBB-/ 4BB-/	2cc\ 2gg\ 2ccc\	.
4G\ 4B-\ 4e-\	.	.
=54	=54	=54
4FF/ 4F/	4b-\ 4dd\ 4aa-\ 4bb-\	.
4A-\ 4B-\ 4d\	8b-\ 8dd\ 8aa-\ 8bb-\L	.
.	8b-\ 8dd\ 8aa-\ 8bb-\J	.
4BBB-/ 4BB-/	8b-\ 8dd\ 8aa-\ 8bb-\L	.
.	8b-\	.
4A-\ 4B-\ 4d\	8dd\	.
.	8ff\J	.
=55	=55	=55
4FF/ 4F/	2b-\ 2dd\ 2aa-\ 2bb-\	.
4A-\ 4B-\ 4d\	.	.
4BBB-/ 4BB-/	2cc\ 2aa-\ 2ccc\	.
4A-\ 4B-\ 4d\	.	.
=56	=56	=56
4FF/ 4F/	4b-\ 4dd\ 4aa-\ 4bb-\	.
4A-\ 4B-\ 4d\	8b-\ 8dd\ 8aa-\ 8bb-\L	.
.	8b-\ 8dd\ 8aa-\ 8bb-\J	.
4BBB-/ 4BB-/	8b-\ 8dd\ 8aa-\ 8bb-\L	.
.	8b-\ 8bb-\	.
4A-\ 4B-\ 4d\	8cc\ 8ccc\	.
.	8cc#\ 8ccc#\J	.
=57	=57	=57
4FF/ 4F/	2dd\ 2bb-\ 2ddd\	.
4A-\ 4B-\ 4d\	.	.
4DD/ 4D/	2cc\ 2aa-\ 2ccc\	.
4A-\ 4B-\ 4d\	.	.
=58	=58	=58
4EE-/ 4E-/	4b-\ 4gg\ 4bb-\	.
4G\ 4B-\ 4e-\	8b-\ 8gg\ 8bb-\L	.
.	8b-\ 8gg\ 8bb-\J	.
4BBB-/ 4BB-/	8b-\ 8gg\ 8bb-\L	.
.	8b-\	.
4G\ 4B-\ 4e-\	8ee-\	.
.	8gg\J	.
=59	=59	=59
4EE-/ 4E-/	2b-\ 2gg\ 2bb-\	.
4G\ 4B-\ 4e-\	.	.
4BBB-/ 4BB-/	2cc\ 2gg\ 2ccc\	.
4G\ 4B-\ 4e-\	.	.
=60	=60	=60
4EE-/ 4E-/	4b-\ 4gg\ 4bb-\	.
4G\ 4B-\ 4e-\	8b-\ 8gg\ 8bb-\L	.
.	8b-\ 8gg\ 8bb-\J	.
4EE-/ 4E-/	8b-\ 8gg\ 8bb-\L	.
.	8b-\	.
4G\ 4B-\ 4e-\	8ee-\	.
.	8gg\J	.
=61	=61	=61
4GG/ 4G/	2b-\ 2gg\ 2bb-\	.
4G\ 4B-\ 4e-\	.	.
4GG-/ 4G-/	2cc\ 2gg-\ 2ccc\	.
4G-\ 4B-\ 4e-\	.	.
=62	=62	=62
4FF/ 4F/	4dd\ 4bb-\ 4ddd\	.
4F\ 4B-\ 4d\	8dd\ 8bb-\ 8ddd\L	.
.	8dd\ 8bb-\ 8ddd\J	.
4F\ 4B-\ 4d\	4dd\ 4bb-\ 4ddd\	.
4F\ 4B-\ 4d\	(8dd\L	.
.	8ee-\J)	.
=63	=63	=63
4AAn/	4ff\	.
4F\ 4An\ 4c\ 4e-\	(8ee-\L	.
.	8cc\J)	.
4FF/	4an/	.
4F\ 4A\ 4c\ 4e-\	4f/	.
=64	=64	=64
4BB-/	4gg\	.
4F\ 4B-\ 4d\	(8ff\L	.
.	8dd\J)	.
4D\	4b-\	.
4F\ 4B-\ 4d\	4f/	.
=65	=65	=65
4AAn/	4ff\	.
4F\ 4An\ 4c\ 4e-\	(8ee-\L	.
.	8cc\J)	.
4FF/	4an/	.
4F\ 4A\ 4c\ 4e-\	4f/	.
=66	=66	=66
*>E1	*>E1	*>E1
4BB-\ 4B-\	4b-\	.
4F\	8d/ 8f/ 8b-/L	.
.	8d/ 8f/ 8b-/J	.
4BB-\ 4B-\	8d/ 8f/ 8b-/L	.
.	8b-/	.
4r	8ee-/	.
.	8gg/J	.
=67:|!	=67:|!	=67:|!
*>E2	*>E2	*>E2
4BB-\ 4B-\	4b-/	.
4D\	8d/ 8f/ 8b-/L	.
.	8d/ 8f/ 8b-/J	.
4BB-\ 4B-\	4d/ 4f/ 4b-/	.
4r	4b-/	.
=68!|:	=68!|:	=68!|:
4DD/ 4D/	4.f/	.
*>F	*>F	*>F
4A-\ 4B-\ 4d\	.	.
.	8g/	.
4BBB-/ 4BB-/	4f/ 4a-/	.
4A-\ 4B-\ 4d\	4f/ 4a-/ 4dd/	.
=69	=69	=69
4DD/ 4D/	2.f/ 2.a-/ 2.cc/	.
4A-\ 4B-\ 4d\	.	.
4BBB-/ 4BB-/	.	.
4A-\ 4B-\ 4d\	4r	.
=70	=70	=70
4EE-/ 4E-/	4.g/	.
4G\ 4B-\ 4e-\	.	.
.	8a-/	.
4BBB-/ 4BB-/	4g/ 4b-/	.
4G\ 4B-\ 4e-\	4g\ 4ee-\	.
=71	=71	=71
4EE-/ 4E-/	2.g/ 2.cc/	.
4G\ 4B-\ 4e-\	.	.
4BBB-/ 4BB-/	.	.
4G\ 4B-\ 4e-\	4r	.
=72	=72	=72
4FF/ 4F/	8a-\ 8dd\ 8aa-\L	.
.	8a-\ 8dd\ 8aa-\J	.
4A-\ 4B-\ 4d\	4a-\ 4dd\ 4aa-\	.
4BBB-/ 4BB-/	4.a-\ 4.dd\ 4.aa-\	.
4A-\ 4B-\ 4d\	.	.
.	8f\ 8ff\	.
=73	=73	=73
4EE-/ 4E-/	4e-/ 4ee-/	.
4G\ 4B-\ 4e-\	4g\ 4gg\	.
4EE-/ 4E-/	2b-\ 2bb-\	.
4G\ 4B-\ 4e-\	.	.
=74	=74	=74
4FF/ 4F/	8a-\ 8dd\ 8aa-\L	.
.	8a-\ 8dd\ 8aa-\J	.
4A-\ 4B-\ 4d\	4a-\ 4dd\ 4aa-\	.
4BBB-/ 4BB-/	4.a-\ 4.dd\ 4.aa-\	.
4A-\ 4B-\ 4d\	.	.
.	8f#\ 8ff#\	.
=75	=75	=75
4EE-/ 4E-/	8g\ 8gg\L	.
.	8ee-\ 8eee-\	.
4G\ 4B-\ 4e-\	8dd\ 8ddd\	.
.	8cc\ 8ccc\J	.
4EE-/ 4E-/	4b-\ 4bb-\	.
4G\ 4B-\ 4e-\	4b-\	.
=76	=76	=76
4DD/ 4D/	4.f/	.
4A-\ 4B-\ 4d\	.	.
.	8g/	.
4BBB-/ 4BB-/	4f/ 4a-/	.
4A-\ 4B-\ 4d\	4f/ 4a-/ 4dd/	.
=77	=77	=77
4DD/ 4D/	2.f/ 2.a-/ 2.cc/	.
4A-\ 4B-\ 4d\	.	.
4BBB-/ 4BB-/	.	.
4A-\ 4B-\ 4d\	4r	.
=78	=78	=78
4EE-/ 4E-/	4.g/	.
4G\ 4B-\ 4e-\	.	.
.	8a-/	.
4BBB-/ 4BB-/	4g/ 4b-/	.
4G\ 4B-\ 4e-\	4g\ 4ee-\	.
=79	=79	=79
4EE-/ 4E-/	2.g/ 2.cc/	.
4G\ 4B-\ 4e-\	.	.
4EE-/ 4E-/	.	.
4G\ 4B-\ 4e-\	4r	.
=80	=80	=80
4CC-/ 4C-/	8ee-\ 8eee-\L	.
.	8ee-\ 8eee-\J	.
4F#\ 4An\ 4e-\	4ee-\ 4eee-\	.
4CC-/ 4C-/	4.ee-\ 4.eee-\	.
4F#\ 4A\ 4e-\	.	.
.	8an\ 8aan\	.
=81	=81	=81
4BBB-/ 4BB-/	4b-\ 4bb-\	.
4G\ 4B-\ 4e-\	4cc\ 4ccc\	.
4GGG/ 4GG/	2b-\ 2bb-\	.
4G\ 4B-\ 4e-\	.	.
=82	=82	=82
4BBB-/ 4BB-/	8a-\ 8dd\ 8aa-\L	.
.	8a-\ 8dd\ 8aa-\J	.
4A-\ 4B-\ 4d\	4a-\ 4dd\ 4aa-\	.
4BBB-/ 4BB-/	4.a-\ 4.dd\ 4.aa-\	.
4A-\ 4B-\ 4d\	.	.
.	8f\ 8ff\	.
=83	=83	=83
*>F1	*>F1	*>F1
4EE-/ 4E-/	(8e-/ 8ee-/L	.
.	8B-/	.
4r	8Bn/	.
.	8c/J	.
2r	8c#/L	.
.	8d/	.
.	8e-/	.
.	8en/J)	.
=84:|!	=84:|!	=84:|!
*>F2	*>F2	*>F2
4EE-/ 4E-/	4e-/ 4g/ 4b-/ 4ee-/	.
4r	4r	.
4EE-/ 4E-/	4ee-\ 4gg\ 4bb-\ 4eee-\	.
==	==	==
*-	*-	*-
!!!ENC: Craig Stuart Sapp
!!!END: 2005/04/08/
